X: 721
T: Ey Nihâl-i İşve
C: Vardakosta Seyyid Ahmed Ağa
O: Turkey
F: http://compmusic.upf.edu/node/140
N: muhayyersunbule--sarki--sarkidevrirevani--ey_nihal-i_isve--ahmed_aga
N: makam= muhayyersunbule
N: form= sarki
N: usul= sarkidevrirevani = 13/4
M: 13/4
L: 1/16
K: C _1/4B _7/8d  
Q: 1/4=66
%%MIDI tuningsystem comma53
g2a2 a4 a4 z2_b4ba g3^f g2a2 g2a6 a3/2b/ag =f3/2_1/4e/=d2 a8  | 
w:  Ey  *  *  ni hâl_ *  *  *  *  *  *  i   | 
g3g a6c'2 _b3a g2a2 g4 f4 c'3b b3a a3g g3f f3_1/4e e3_3/4d  | 
w:  iş *  ve  *  bir  *  *  *  *  *  nev  | 
_3/4d3c c2B2 c2d_1/4e d3c B2c2 B2d2 c4 z4 c2d2 e2f2 g2a2 g2f2 e2d2  | 
w:  res  *  *  *  *  fi *  dâ *  *  *  *  *  *  nım  | 
_3/4d2c4B2 c2d_1/4e d2c6 B2AG e2dc c6_b2 abag agfg a4 z4  | 
w:  sın  *  *  be *  *  nim   *  *  *  *  *  *  *  *  SAZ  | 
g4 a8 z2_b4ag agg^f g2a2 g2a6 abag =f_1/4e_3/4d2 a8  | 
w:  Gör dü ğüm  *  *  *  *  *  *  *  *  gün  | 
g4 a6c'2 _b3a g2a2 g4 f4 c'3b b3a a3g g3f f3_1/4e e3_3/4d  | 
w:  den  be *  ri  *  *  *  *  *  hâ  | 
_3/4d2c4B2 c2d_1/4e d2c4B2 B2BA A6z2 G2A2 B2c2 d3/2e/dc c2cB A4  | 
w:  tır  *  *  ni *  *  şâ *  *  *  *  *  *  nım  | 
B2c2 B2c2 A6c4BA A2_B4AG G2A6 A2z2 _3/4d'c'ba b4 c'4  | 
w:  sın  *  *  *  be nim   *  *  *  *  *  *  *  *  *  SAZ  | 
g4 a6b2 z2c'_3/4d' c'2d'2 c'4 b4 z4 b3c' b4 c'2d'2 c'3b a4  | \
w:  Ben  ne  *  hâ *  *  *  *  *  cet   | 
g4 a6z4a4b2 a4 b2c'b a^gf2 g2a2 g2a12z2  | 
w:  kim  di yem  *  *  *  *  *  rûh_  | 
^g2a2 a6b2 z2_1/4d'4c'2 c'3b b3a _3/4d'c'ba =g4 d'4 c'2b2 c'4 b3a  | 
w:  i  *  re *  vâ *  *  *  *  *  *  *  *  *  *  nım  | 
b2c'2 b4 a4 z2c'4_ba a2b4ag g2a6 abag f_1/4e_3/4d2 a8  | 
w:  sın  *  *  be nim    | 
g4 a8 z2_b4ag agg^f g2a2 g2a6 abag =f_1/4e_3/4d2 a8  | 
w:  Gör dü ğüm  *  *  *  *  *  *  *  *  gün  | 
g4 a6c'2 _b3a g2a2 g4 f4 c'3b b3a a3g g3f f3_1/4e e3_3/4d  | 
w:  den  be *  ri  *  *  *  *  *  hâ  | 
_3/4d2c4B2 c2d_1/4e d2c4B2 B2BA A6z2 G2A2 B2c2 d3/2e/dc c2cB A4  | 
w:  tır  *  *  ni *  *  şâ *  *  *  *  *  *  nım  | 
B2c2 B2c2 A6c4BA A2_B4AG G2A6 |
w:  sın  *  *  *  be nim    | 


